images/logo/resources-arzamas.svg

<svg xmlns="http://www.w3.org/2000/svg" width="177" height="27" fill="none">
  <path fill="#BDBDBD" fill-rule="evenodd" d="M18.8648 22.2559 10.6992.461426H6.02411L4.51919 4.49449 11.0571 22.2554c.3965 1.1101.2765 2.1826-2.25824 2.1826v1.4806H21.5567V24.438c-1.0697 0-2.1017-.554-2.6919-2.1826v.0005Zm16.4059 2.1131h.849v1.5496H23.222v-1.3347c.4402-.0097.8736-.1076 1.272-.2876.3067-.1753.5538-.432.7116-.7392.1577-.3073.2193-.6517.1772-.9918V11.676c0-1.2269-.193-1.5867-1.8157-1.5495-.2963-.0042-.5926.007-.8877.0334V8.89902c1.7765-.61239 5.2542-1.55007 7.4914-1.55007 2.0851 0 2.5867.64794 2.5867 2.30627v.97428c1.776-2.16297 3.6686-3.28055 5.7924-3.28055 1.97 0 3.5131 1.15313 3.5131 3.17335.0281.417-.0345.8351-.1837 1.2276-.1493.3926-.3819.751-.6833 1.0527-.3013.3017-.6647.54-1.0671.6998-.4024.1598-.835.2375-1.2704.2283-2.4711 0-2.2394-2.5233-4.4412-2.5233-.5841.027-1.153.1876-1.6592.4686v10.8893c.0022 1.047.8517 1.8042 2.5126 1.8042v-.0005Zm9.6064-16.47824h16.4877l.657 1.00826L51.905 23.9349h3.2028c1.2732-.0247 2.5044-.4408 3.5126-1.1872 1.0082-.7463 1.74-1.7835 2.0879-2.9589l1.3135.1449-.8495 5.9849H43.7184l-.5791-.9372L53.2572 9.8728h-2.8593c-3.2029 0-4.5563 1.9104-5.3649 3.8956l-1.4275-.1809 1.2716-5.69674Zm39.693 16.37004c.2301.0184.4613.0184.6914 0l.0387.8299c-1.7348.8891-3.6691 1.3594-5.6359 1.3702-3.5894 0-4.3637-1.479-4.3637-3.5698v-.3969c-1.2721 2.0197-3.2421 3.9306-6.3316 3.9306-2.9357 0-4.6348-1.731-4.6348-4.2915 0-3.426 3.0126-4.5786 6.9516-5.3358l4.0148-.7568v-.65c0-2.1275-.8484-3.5332-3.746-3.5332-2.189.0828-4.363.3852-6.4865.9021v-2.5599c3.2831-1.65835 6.9904-2.8481 10.1163-2.8481 5.481 0 7.4942 2.8125 7.4942 7.6092v7.0653c0 1.7655.4203 2.2341 1.8915 2.2341v.0006Zm-9.2695-2.6321V17.482l-2.0066.4697c-1.3511.3247-2.3566.8644-2.3566 2.163 0 1.4062 1.1974 1.8748 2.3566 1.8748.6849-.0154 1.3626-.1375 2.0066-.3614v.0006Zm22.0677 2.6321c.3833.1936.8062.3043 1.2389.3242v1.3346H86.9041V24.585c.4421-.0093.8773-.1072 1.2776-.2876.3062-.1755.5527-.4325.7098-.7397.1571-.3073.2179-.6516.1751-.9914V11.6771c0-1.1909-.1936-1.5496-1.6205-1.5496-.3097 0-.6582 0-1.0785.0334V8.89902c1.7754-.61239 5.2487-1.55007 7.4886-1.55007 2.0851 0 2.5884.64794 2.5884 2.30627v1.33518c2.0464-2.09138 4.5964-3.64145 7.5274-3.64145 3.285 0 5.022 1.26139 5.636 3.82075 2.124-2.16401 4.679-3.82075 7.726-3.82075 4.287 0 5.946 2.12744 5.946 6.59775v8.6186c-.031.3375.04.6764.204.9767.163.3002.413.5492.719.7177.384.193.807.3036 1.239.3242v1.3347h-11.703v-1.3347c.442-.0092.878-.1072 1.278-.2876.306-.1755.553-.4324.71-.7397.157-.3072.218-.6516.175-.9913v-6.6334c0-2.7753-.459-4.6863-3.435-4.6863-.943-.02-1.879.1647-2.737.5402.125.7148.19 1.4382.193 2.163v8.6186c-.032.3377.038.677.202.9775.164.3004.415.5493.722.7169.381.1937.802.3044 1.233.3243v1.3346h-11.697v-1.3346c.44-.0093.873-.1073 1.272-.2877.307-.175.554-.4317.712-.7389.158-.3072.22-.6519.178-.9921v-6.6333c0-2.7754-.465-4.6863-3.4401-4.6863-.9139-.0148-1.8207.1569-2.6603.5036v10.8181c-.0298.337.0413.6751.2049.9746.1637.2995.413.548.7188.7161v.0006Zm50.2527 0c.23.0184.461.0184.691 0l.039.8299c-1.735.8891-3.669 1.3594-5.636 1.3702-3.59 0-4.364-1.479-4.364-3.5698v-.3969c-1.272 2.0197-3.246 3.9306-6.333 3.9306-2.931 0-4.634-1.731-4.634-4.2915 0-3.426 3.014-4.5786 6.952-5.3358l4.015-.7568v-.65c0-2.1275-.852-3.5332-3.744-3.5332-2.19.083-4.364.3854-6.488.9021v-2.5599c3.28-1.65835 6.986-2.8481 10.116-2.8481 5.486 0 7.494 2.8125 7.494 7.6092v7.0653c0 1.7655.426 2.2341 1.892 2.2341v.0006Zm-9.27-2.6321V17.482l-2.008.4697c-1.349.3247-2.356.8644-2.356 2.163 0 1.4062 1.201 1.8748 2.356 1.8748.686-.0153 1.364-.1374 2.008-.3614v.0006Zm11.77 3.5687-.117-5.1915 1.582-.181c1.388 2.8125 3.357 4.689 6.023 4.689 1.853 0 2.898-1.0083 2.898-2.1996 0-1.2625-1.277-1.8043-2.898-2.1996l-1.737-.4325c-2.627-.6496-5.558-2.3795-5.558-5.6978 0-3.9306 4.015-6.63333 9.496-6.63333 2.196-.04072 4.369.42942 6.333 1.37018l.387 4.61675-1.853.1062c-1.697-3.1739-3.478-4.14771-5.37-4.14771-1.659 0-2.511.97381-2.511 2.12801 0 1.4062 1.123 2.0563 2.627 2.4172l2.124.503c2.55.6151 5.641 1.8393 5.641 5.338 0 4.759-5.602 6.7787-10.27 6.7787-2.328-.0132-4.633-.442-6.797-1.2645v.0005Zm22.98-4.992c-1.859 0-3.905-.8666-3.905-3.2816 0-2.4151 2.046-3.3172 3.905-3.3172 1.808 0 3.899.9021 3.899 3.3172 0 2.415-2.091 3.2811-3.899 3.2811v.0005Zm-169.4623.3789C1.78479 20.5843 0 19.7177 0 17.3027c0-2.4151 1.78479-3.3178 3.6387-3.3178 1.81243 0 3.65528.9022 3.65528 3.3178 0 2.4155-1.84562 3.2811-3.65805 3.2811l.00277.0005Z" clip-rule="evenodd"/>
</svg>

<svg width="177" height="27" viewBox="0 0 177 27" fill="none" xmlns="http://www.w3.org/2000/svg">
<path fill-rule="evenodd" clip-rule="evenodd" d="M18.8648 22.2559L10.6992 0.461426H6.02411L4.51919 4.49449L11.0571 22.2554C11.4536 23.3655 11.3336 24.438 8.79886 24.438V25.9186H21.5567V24.438C20.487 24.438 19.455 23.884 18.8648 22.2554V22.2559ZM35.2707 24.369H36.1197V25.9186H23.222V24.5839C23.6622 24.5742 24.0956 24.4763 24.494 24.2963C24.8007 24.121 25.0478 23.8643 25.2056 23.5571C25.3633 23.2498 25.4249 22.9054 25.3828 22.5653V11.676C25.3828 10.4491 25.1898 10.0893 23.5671 10.1265C23.2708 10.1223 22.9745 10.1335 22.6794 10.1599V8.89902C24.4559 8.28663 27.9336 7.34895 30.1708 7.34895C32.2559 7.34895 32.7575 7.99689 32.7575 9.65522V10.6295C34.5335 8.46653 36.4261 7.34895 38.5499 7.34895C40.5199 7.34895 42.063 8.50208 42.063 10.5223C42.0911 10.9393 42.0285 11.3574 41.8793 11.7499C41.73 12.1425 41.4974 12.5009 41.196 12.8026C40.8947 13.1043 40.5313 13.3426 40.1289 13.5024C39.7265 13.6622 39.2939 13.7399 38.8585 13.7307C36.3874 13.7307 36.6191 11.2074 34.4173 11.2074C33.8332 11.2344 33.2643 11.395 32.7581 11.676V22.5653C32.7603 23.6123 33.6098 24.3695 35.2707 24.3695V24.369ZM44.8771 7.89076H61.3648L62.0218 8.89902L51.905 23.9349H55.1078C56.381 23.9102 57.6122 23.4941 58.6204 22.7477C59.6286 22.0014 60.3604 20.9642 60.7083 19.7888L62.0218 19.9337L61.1723 25.9186H43.7184L43.1393 24.9814L53.2572 9.8728H50.3979C47.195 9.8728 45.8416 11.7832 45.033 13.7684L43.6055 13.5875L44.8771 7.89076ZM84.5701 24.2608C84.8002 24.2792 85.0314 24.2792 85.2615 24.2608L85.3002 25.0907C83.5654 25.9798 81.6311 26.4501 79.6643 26.4609C76.0749 26.4609 75.3006 24.9819 75.3006 22.8911V22.4942C74.0285 24.5139 72.0585 26.4248 68.969 26.4248C66.0333 26.4248 64.3342 24.6938 64.3342 22.1333C64.3342 18.7073 67.3468 17.5547 71.2858 16.7975L75.3006 16.0407V15.3907C75.3006 13.2632 74.4522 11.8575 71.5546 11.8575C69.3656 11.9403 67.1916 12.2427 65.0681 12.7596V10.1997C68.3512 8.54135 72.0585 7.3516 75.1844 7.3516C80.6654 7.3516 82.6786 10.1641 82.6786 14.9608V22.0261C82.6786 23.7916 83.0989 24.2602 84.5701 24.2602V24.2608ZM75.3006 21.6287V17.482L73.294 17.9517C71.9429 18.2764 70.9374 18.8161 70.9374 20.1147C70.9374 21.5209 72.1348 21.9895 73.294 21.9895C73.9789 21.9741 74.6566 21.852 75.3006 21.6281V21.6287ZM97.3683 24.2608C97.7516 24.4544 98.1745 24.5651 98.6072 24.585V25.9196H86.9041V24.585C87.3462 24.5757 87.7814 24.4778 88.1817 24.2974C88.4879 24.1219 88.7344 23.8649 88.8915 23.5577C89.0486 23.2504 89.1094 22.9061 89.0666 22.5663V11.6771C89.0666 10.4862 88.873 10.1275 87.4461 10.1275C87.1364 10.1275 86.7879 10.1275 86.3676 10.1609V8.89902C88.143 8.28663 91.6163 7.34895 93.8562 7.34895C95.9413 7.34895 96.4446 7.99689 96.4446 9.65522V10.9904C98.491 8.89902 101.041 7.34895 103.972 7.34895C107.257 7.34895 108.994 8.61034 109.608 11.1697C111.732 9.00569 114.287 7.34895 117.334 7.34895C121.621 7.34895 123.28 9.47639 123.28 13.9467V22.5653C123.249 22.9028 123.32 23.2417 123.484 23.542C123.647 23.8422 123.897 24.0912 124.203 24.2597C124.587 24.4527 125.01 24.5633 125.442 24.5839V25.9186H113.739V24.5839C114.181 24.5747 114.617 24.4767 115.017 24.2963C115.323 24.1208 115.57 23.8639 115.727 23.5566C115.884 23.2494 115.945 22.905 115.902 22.5653V15.9319C115.902 13.1566 115.443 11.2456 112.467 11.2456C111.524 11.2256 110.588 11.4103 109.73 11.7858C109.855 12.5006 109.92 13.224 109.923 13.9488V22.5674C109.891 22.9051 109.961 23.2444 110.125 23.5449C110.289 23.8453 110.54 24.0942 110.847 24.2618C111.228 24.4555 111.649 24.5662 112.08 24.5861V25.9207H100.383V24.5861C100.823 24.5768 101.256 24.4788 101.655 24.2984C101.962 24.1234 102.209 23.8667 102.367 23.5595C102.525 23.2523 102.587 22.9076 102.545 22.5674V15.9341C102.545 13.1587 102.08 11.2478 99.1049 11.2478C98.191 11.233 97.2842 11.4047 96.4446 11.7514V22.5695C96.4148 22.9065 96.4859 23.2446 96.6495 23.5441C96.8132 23.8436 97.0625 24.0921 97.3683 24.2602V24.2608ZM147.621 24.2608C147.851 24.2792 148.082 24.2792 148.312 24.2608L148.351 25.0907C146.616 25.9798 144.682 26.4501 142.715 26.4609C139.125 26.4609 138.351 24.9819 138.351 22.8911V22.4942C137.079 24.5139 135.105 26.4248 132.018 26.4248C129.087 26.4248 127.384 24.6938 127.384 22.1333C127.384 18.7073 130.398 17.5547 134.336 16.7975L138.351 16.0407V15.3907C138.351 13.2632 137.499 11.8575 134.607 11.8575C132.417 11.9405 130.243 12.2429 128.119 12.7596V10.1997C131.399 8.54135 135.105 7.3516 138.235 7.3516C143.721 7.3516 145.729 10.1641 145.729 14.9608V22.0261C145.729 23.7916 146.155 24.2602 147.621 24.2602V24.2608ZM138.351 21.6287V17.482L136.343 17.9517C134.994 18.2764 133.987 18.8161 133.987 20.1147C133.987 21.5209 135.188 21.9895 136.343 21.9895C137.029 21.9742 137.707 21.8521 138.351 21.6281V21.6287ZM150.121 25.1974L150.004 20.0059L151.586 19.8249C152.974 22.6374 154.943 24.5139 157.609 24.5139C159.462 24.5139 160.507 23.5056 160.507 22.3143C160.507 21.0518 159.23 20.51 157.609 20.1147L155.872 19.6822C153.245 19.0326 150.314 17.3027 150.314 13.9844C150.314 10.0538 154.329 7.35107 159.81 7.35107C162.006 7.31035 164.179 7.78049 166.143 8.72125L166.53 13.338L164.677 13.4442C162.98 10.2703 161.199 9.29649 159.307 9.29649C157.648 9.29649 156.796 10.2703 156.796 11.4245C156.796 12.8307 157.919 13.4808 159.423 13.8417L161.547 14.3447C164.097 14.9598 167.188 16.184 167.188 19.6827C167.188 24.4417 161.586 26.4614 156.918 26.4614C154.59 26.4482 152.285 26.0194 150.121 25.1969V25.1974ZM173.101 20.2054C171.242 20.2054 169.196 19.3388 169.196 16.9238C169.196 14.5087 171.242 13.6066 173.101 13.6066C174.909 13.6066 177 14.5087 177 16.9238C177 19.3388 174.909 20.2049 173.101 20.2049V20.2054ZM3.6387 20.5843C1.78479 20.5843 0 19.7177 0 17.3027C0 14.8876 1.78479 13.9849 3.6387 13.9849C5.45113 13.9849 7.29398 14.8871 7.29398 17.3027C7.29398 19.7182 5.44836 20.5838 3.63593 20.5838L3.6387 20.5843Z" fill="#BDBDBD"/>
</svg>
